icons/evolvere-blue-folders-flat-vivid-dark-fallback/apps/64/calligraflow.svg

<svg xmlns="http://www.w3.org/2000/svg" viewBox="0 0 64 64"><defs><linearGradient y2="9" x2="0" y1="59" gradientUnits="userSpaceOnUse" id="0"><stop stop-color="#ebebeb"/><stop offset=".5" stop-color="#ebebeb"/><stop offset=".503" stop-color="#d6d6d6"/><stop offset="1" stop-color="#d6d6d6"/></linearGradient></defs><path d="m0 2v32 28l2 2h30 30l2-2v-28-32h-32z" fill="#ad45c9" color="#000"/><path d="m11 9v2h-1l-2 48 2 2h47v-2h1v-50l-2-2z" fill="#003159" fill-opacity=".219"/><g color="#000"><path d="m9 7h47v50h-47" fill="#bcbcbc"/><path d="m8 9h47v50h-47" fill="url(#0)"/><path d="m2 0l-2 1v1h32 32v-1l-2-1h-30z" fill="#e35cef"/></g><path d="m0 1v3l2-2" fill="#ee79f9"/><path d="m64 4l-2-2 2-1z" fill="#c651db"/><g color="#000"><path fill="#e06842" d="m12 38h11v9h-11z"/><path fill="#1f8eeb" fill-opacity=".718" d="m26 38h11v9h-11z"/><path fill="#38cc65" d="m40 38h11v9h-11z"/><path fill="#d55ee0" d="m21 16h21v9h-21z"/><path d="m31 26l13 11m-13-11v11m0-11l-13 11" fill="none" stroke="#5a5a5a"/></g><path d="m0 57l64-20v25l-2 2h-60l-2-2" fill="#b64dd2" fill-rule="evenodd"/></svg>

<?xml version="1.0" encoding="UTF-8" standalone="no"?>
<!-- Created with Inkscape (http://www.inkscape.org/) -->

<svg
   xmlns:dc="http://purl.org/dc/elements/1.1/"
   xmlns:cc="http://creativecommons.org/ns#"
   xmlns:rdf="http://www.w3.org/1999/02/22-rdf-syntax-ns#"
   xmlns:svg="http://www.w3.org/2000/svg"
   xmlns="http://www.w3.org/2000/svg"
   xmlns:xlink="http://www.w3.org/1999/xlink"
   xmlns:sodipodi="http://sodipodi.sourceforge.net/DTD/sodipodi-0.dtd"
   xmlns:inkscape="http://www.inkscape.org/namespaces/inkscape"
   width="64"
   height="64"
   id="svg13094"
   version="1.1"
   inkscape:version="0.91+devel r"
   sodipodi:docname="calligraflow.svg">
  <sodipodi:namedview
     id="base"
     pagecolor="#ffffff"
     bordercolor="#666666"
     borderopacity="1.0"
     inkscape:pageopacity="0"
     inkscape:pageshadow="2"
     inkscape:zoom="11.313709"
     inkscape:cx="34.421393"
     inkscape:cy="26.993479"
     inkscape:document-units="px"
     inkscape:current-layer="svg13094"
     showgrid="true"
     inkscape:snap-bbox="true"
     inkscape:bbox-paths="true"
     inkscape:bbox-nodes="true"
     inkscape:snap-bbox-edge-midpoints="true"
     inkscape:snap-bbox-midpoints="true"
     inkscape:object-paths="true"
     inkscape:snap-intersection-paths="true"
     inkscape:object-nodes="true"
     inkscape:snap-smooth-nodes="true"
     inkscape:snap-midpoints="true"
     inkscape:snap-object-midpoints="true"
     inkscape:snap-center="true"
     showguides="true"
     inkscape:guide-bbox="true"
     inkscape:window-width="1920"
     inkscape:window-height="1023"
     inkscape:window-x="-10"
     inkscape:window-y="35"
     inkscape:window-maximized="1"
     inkscape:snap-global="true"
     fit-margin-top="0"
     fit-margin-left="0"
     fit-margin-right="0"
     fit-margin-bottom="0"
     showborder="true"
     inkscape:showpageshadow="false"
     inkscape:snap-page="true">
    <inkscape:grid
       originy="18px"
       originx="1.6362304e-08px"
       snapvisiblegridlinesonly="true"
       enabled="true"
       visible="true"
       empspacing="5"
       id="grid3075"
       type="xygrid" />
  </sodipodi:namedview>
  <defs
     id="defs13096">
    <linearGradient
       y2="4.4313717"
       x2="32.039215"
       y1="65.215691"
       x1="32.039215"
       gradientTransform="matrix(0.82258065,0,0,0.82258065,6.645161,5.354839)"
       gradientUnits="userSpaceOnUse"
       id="linearGradient4037-2"
       xlink:href="#linearGradient3984-8-7-3-8"
       inkscape:collect="always" />
    <linearGradient
       gradientTransform="matrix(0.82258065,0,0,0.82258065,6.354839,8.5887097)"
       gradientUnits="userSpaceOnUse"
       id="linearGradient3984-8-7-3-8"
       y2="2"
       x2="31"
       y1="64"
       x1="31">
      <stop
         offset="0"
         style="stop-color:#ebebeb;stop-opacity:1"
         id="stop3099-1-3-0-1" />
      <stop
         offset="0.5"
         style="stop-color:#ebebeb;stop-opacity:1;"
         id="stop3875-7-3-2-0" />
      <stop
         offset="0.50287074"
         style="stop-color:#d6d6d6;stop-opacity:1"
         id="stop3873-1-0-8-5" />
      <stop
         offset="1"
         style="stop-color:#d6d6d6;stop-opacity:1"
         id="stop3101-06-4-6-6" />
    </linearGradient>
  </defs>
  <metadata
     id="metadata13099">
    <rdf:RDF>
      <cc:Work
         rdf:about="">
        <dc:format>image/svg+xml</dc:format>
        <dc:type
           rdf:resource="http://purl.org/dc/dcmitype/StillImage" />
        <dc:title></dc:title>
      </cc:Work>
    </rdf:RDF>
  </metadata>
  <path
     sodipodi:nodetypes="ccccccccccc"
     id="path4095"
     d="m 0,2 0,32 0,28 2,2 30,0 30,0 2,-2 0,-28 0,-32 -32,0 z"
     style="color:#000000;fill:#ad45c9;fill-opacity:1;fill-rule:nonzero;stroke:none;stroke-width:2.28571415;marker:none;visibility:visible;display:inline;overflow:visible;enable-background:accumulate"
     inkscape:connector-curvature="0" />
  <path
     sodipodi:nodetypes="ccccccccccc"
     inkscape:connector-curvature="0"
     id="path3960-6"
     d="m 11,9 0,2 -1,0 -2,48 2,2 47,0 0,-2 1,0 0,-50 -2,-2 z"
     style="fill:#003159;fill-opacity:0.21914134;fill-rule:nonzero" />
  <path
     style="color:#000000;display:inline;overflow:visible;visibility:visible;fill:#bcbcbc;fill-opacity:1;fill-rule:nonzero;stroke-width:1;stroke-linecap:butt;stroke-linejoin:miter;stroke-miterlimit:4;stroke-dasharray:none;stroke-dashoffset:0;stroke-opacity:1;marker:none;enable-background:accumulate"
     id="path3960-1"
     d="M 9,7 56,7 56,57 9,57 Z"
     inkscape:connector-curvature="0" />
  <path
     style="color:#000000;display:inline;overflow:visible;visibility:visible;fill:url(#linearGradient4037-2);fill-opacity:1;fill-rule:nonzero;stroke-width:1;stroke-linecap:butt;stroke-linejoin:miter;stroke-miterlimit:4;stroke-dasharray:none;stroke-dashoffset:0;stroke-opacity:1;marker:none;enable-background:accumulate"
     id="path3960-9-3"
     d="M 8,9 55,9 55,59 8,59 Z"
     inkscape:connector-curvature="0" />
  <path
     sodipodi:nodetypes="ccccccccc"
     id="path4090"
     d="M 2,0 0,1 0,2 32,2 64,2 64,1 62,0 32,0 z"
     style="color:#000000;fill:#e35cef;fill-opacity:1;fill-rule:nonzero;stroke:none;stroke-width:2.28571415000000000;marker:none;visibility:visible;display:inline;overflow:visible;enable-background:accumulate"
     inkscape:connector-curvature="0" />
  <path
     sodipodi:nodetypes="cccc"
     inkscape:connector-curvature="0"
     id="path4298"
     d="M 0,1 0,4 2,2 Z"
     style="fill:#ee79f9;fill-opacity:1;fill-rule:nonzero" />
  <path
     sodipodi:nodetypes="cccc"
     inkscape:connector-curvature="0"
     style="fill:#c651db;fill-opacity:1"
     id="path3028"
     d="M 64,4 62,2 64,1 z" />
  <g
     transform="translate(-0.62500009,0.082283)"
     inkscape:export-ydpi="90"
     inkscape:export-xdpi="90"
     inkscape:export-filename="folder.png"
     id="g3043" />
  <g
     style="fill:#ffffff"
     inkscape:label="#g3701"
     transform="matrix(1.0385892,0,0,1.0385892,1214.7222,1878.8121)"
     id="scalable" />
  <g
     id="g3024">
    <rect
       style="color:#000000;fill:#e06842;fill-opacity:1;fill-rule:nonzero;stroke:none;stroke-width:2.28571415;marker:none;visibility:visible;display:inline;overflow:visible;enable-background:accumulate"
       id="rect3877"
       width="11"
       height="9"
       x="12"
       y="38" />
    <rect
       y="38"
       x="26"
       height="9"
       width="11"
       id="rect3881"
       style="color:#000000;fill:#1f8eeb;fill-opacity:0.71764708;fill-rule:nonzero;stroke:none;stroke-width:2;marker:none;visibility:visible;display:inline;overflow:visible;enable-background:accumulate" />
    <rect
       y="38"
       x="40"
       height="9"
       width="11"
       id="rect3871"
       style="color:#000000;fill:#38cc65;fill-opacity:1;fill-rule:nonzero;stroke:none;stroke-width:2;marker:none;visibility:visible;display:inline;overflow:visible;enable-background:accumulate" />
    <rect
       style="color:#000000;fill:#d55ee0;fill-opacity:1;fill-rule:nonzero;stroke:none;stroke-width:2;marker:none;visibility:visible;display:inline;overflow:visible;enable-background:accumulate"
       id="rect3879"
       width="21"
       height="9"
       x="21"
       y="16" />
    <path
       inkscape:connector-curvature="0"
       d="M 31,26 44,37.000001 M 31,26 31,37.000001 M 31,26 18,37.000001"
       style="color:#000000;fill:none;stroke:#5a5a5a;stroke-width:1;stroke-miterlimit:4;stroke-opacity:1;stroke-dasharray:none;marker:none;visibility:visible;display:inline;overflow:visible;enable-background:accumulate"
       id="path3902" />
  </g>
  <path
     sodipodi:nodetypes="ccccccc"
     inkscape:connector-curvature="0"
     id="path4162"
     d="M 1.6362304e-8,57 64,37 64,62 62,64 2,64 1.6362304e-8,62 Z"
     style="fill:#b64dd2;fill-opacity:1;fill-rule:evenodd;stroke:none" />
</svg>
